X:1
T:E minor Walter Janes, 1803
T:Isaac Watts, 1717 (Psalm 4, Part 1)      88. 88. (L. M.)
T:Lamentation
T:Transcribed from The Massachusetts Harmony, 1803.
%%score [ 1 2 3 4 ]
L:1/8
Q:1/4=120
M:4/4
K:G
V:1 treble nm="Tr." snm="Tr."
V:2 treble nm="C." snm="C."
V:3 treble-8 nm="T." snm="T."
V:4 bass nm="B." snm="B."
V:1
"^1.  O    God            of           grace         and  right – eous – ness,   Hear   and  at–tend  when   I         com  –  plain;  Thou hast,  thou hast, thou" B8 | %1
 (e3 f g2) B>A | (G3 A B2) G2 | d4 d4 | d6 B2 | e4 e4 | d6 dc | B4 B4 | x6 B2 | B6 B2 | B4 z2 e2 | %11
"^1.  hast  enlarged  me  in   distress,  Bow  down a gracious   ear        a – gain.                              Ye  sons  of   men, in vain ye  try  To turn my" ^d2 e2 A2 =d>c | %12
 B2 Bc d2 d2 | g2 f2 e2 dc | B2 B2 B4- | B4 z4 |:[M:6/4][Q:1/4=160] B6 d4 B2 | G4 B2 d4 d2 | %18
 d4 d2 d4 g2 | %19
"^1. glo – ry  in – to     shame;     How long will scoffers love to lie,    And  dare    reproach    my      Sa  –  vior's    name?" (d2 B2) G2 c4 B2 | %20
 B6- B4 B2 | B4 B2 B4 G2 | d4 e2 A4 B2 | g4 fe B4 Ac | B6 ^d6 | e12 :| %26
V:2
"^2.  Know  that          the         Lord           divides     his         saints  From  all  the   tribes  of     men     be   –    side;   He  hears,  he hears,    he" E8 | %1
 E6 F2 | G6 G2 | F4 F4 | G6 GF | E4 A4 | A6 B2 | (B2 A2) (G2 F2) | G6 G2 | E6 B2 | G4 z2 G2 | %11
"^2.  hears the cry of      pe–ni–tents,  For       the dear sake of   Christ  that  died.                   When our obedient bands have done  A thousand" F2 A2 A2 A2 | %12
 B2 B2 B2 B2 | E2 F2 G2 A2 | G2 F2 E4- | E4 z4 |:[M:6/4] D6 G4 G2 | G4 G2 B4 B2 | B4 B2 G4 G2 | %19
"^2.  works of righteousness,       We    put our trust in God    alone,   And glo   –    ry      in    his        pardoning      grace." G4 B2 A4 d2 | %20
 B6- B4 B2 | G4 F2 E4 G2 | F4 G2 A4 G2 | B4 A2 G4 c2 | B6 B6 | B12 :| %26
V:3
"^3.  Let    the          un    –    thin    –    king   ma   –  ny        say,   \"Who   will  bestow   some   ear  –   thly      good?\"  But Lord, but Lord, but" E8 | %1
 (G3 A B2) d2 | (e3 f g2) B2 | (A2 G2) (F3 E) | B6 B2 | A4 A4 | d6 ef | (g2 f2) (e2 ^d2) | e6 B2 | %9
 e6 g2 | d4 z2 G2 | %11
"^3.  Lord, thy light and love  we  pray;  Our  souls  desire  this heaven–ly  food.               Then shall my cheerful powers rejoice,  At grace and" B2 e2 d2 d2 | %12
 d2 d2 d2 d2 | e2 a2 g2 f2 | ge ^d2 e4- | e4 z4 |:[M:6/4] d6 d4 g2 | d4 B2 G4 B2 | d4 g2 d4 B2 | %19
"^3.   fa – vors  so  divine;              Nor will  I change my happy choice  For  all       their  corn, and      all        their     wine." (G2 B2) e2 e4 d2 | %20
 e6- e4 B2 | e4 f2 g4 e2 | (f2 d2) B2 d4 d2 | (e3 d) c2 B4 A2 | G6 F6 | E12 :| %26
V:4
 E,8 | E,6 B,,2 | E,6 G,2 | D,4 D,4 | G,6 G,2 | A,4 A,4 | D,6 G,A, | B,4 B,,4 | E,6 E,2 | E,6 E,2 | %10
 G,4 z2 E,2 | B,,2 A,,2 D,2 D,2 | G,2 G,2 G,2 G,F, | E,2 D,2 E,2 F,2 | G,A, B,2 E,4- | E,4 z4 |: %16
[M:6/4] G,6 G,4 G,2 | G,4 G,2 G,4 G,2 | G,4 G,2 G,4 G,2 | G,4 E,2 A,4 B,2 | E,6- E,4 E,2 | %21
"^___________________________________________________________\nEdited by B. C. Johnston, 2016. \n   1. Measure 8, \nBass\n: second note changed from A to B.\n   2. Measure 24, \nTreble\n: grace note following converted to tuplet.\n   3. These words substituted for the original words, from the New Version." E,4 B,,2 E,4 E,2 | %22
 B,,4 E,2 D,4 G,2 | E,4 F,2 G,4 A,2 | B,6 B,,6 | E,12 :| %26

